optimized/24/outline/date.svg

<svg viewBox="0 0 24 24" fill="none" xmlns="http://www.w3.org/2000/svg">
  <g clip-path="url(#clip0_2117_12162)">
    <path d="M7.5 12.25C7.08579 12.25 6.75 12.5858 6.75 13C6.75 13.4142 7.08579 13.75 7.5 13.75H8.5C8.91421 13.75 9.25 13.4142 9.25 13C9.25 12.5858 8.91421 12.25 8.5 12.25H7.5Z" fill="#333333"/>
    <path d="M6.75 16C6.75 15.5858 7.08579 15.25 7.5 15.25H8.5C8.91421 15.25 9.25 15.5858 9.25 16C9.25 16.4142 8.91421 16.75 8.5 16.75H7.5C7.08579 16.75 6.75 16.4142 6.75 16Z" fill="#333333"/>
    <path d="M11.5 12.25C11.0858 12.25 10.75 12.5858 10.75 13C10.75 13.4142 11.0858 13.75 11.5 13.75H12.5C12.9142 13.75 13.25 13.4142 13.25 13C13.25 12.5858 12.9142 12.25 12.5 12.25H11.5Z" fill="#333333"/>
    <path d="M10.75 16C10.75 15.5858 11.0858 15.25 11.5 15.25H12.5C12.9142 15.25 13.25 15.5858 13.25 16C13.25 16.4142 12.9142 16.75 12.5 16.75H11.5C11.0858 16.75 10.75 16.4142 10.75 16Z" fill="#333333"/>
    <path d="M15.5 12.25C15.0858 12.25 14.75 12.5858 14.75 13C14.75 13.4142 15.0858 13.75 15.5 13.75H16.5C16.9142 13.75 17.25 13.4142 17.25 13C17.25 12.5858 16.9142 12.25 16.5 12.25H15.5Z" fill="#333333"/>
    <path d="M8.5 2C8.91421 2 9.25 2.33579 9.25 2.75V4H14.75V2.75C14.75 2.33579 15.0858 2 15.5 2C15.9142 2 16.25 2.33579 16.25 2.75V4H18C19.6569 4 21 5.34315 21 7V18C21 19.6569 19.6569 21 18 21H6C4.34315 21 3 19.6569 3 18V7C3 5.34315 4.34315 4 6 4H7.75V2.75C7.75 2.33579 8.08579 2 8.5 2ZM14.75 5.5H9.25V6.75C9.25 7.16421 8.91421 7.5 8.5 7.5C8.08579 7.5 7.75 7.16421 7.75 6.75V5.5H6C5.17157 5.5 4.5 6.17157 4.5 7V8.25H19.5V7C19.5 6.17157 18.8284 5.5 18 5.5H16.25V6.75C16.25 7.16421 15.9142 7.5 15.5 7.5C15.0858 7.5 14.75 7.16421 14.75 6.75V5.5ZM4.5 9.75V18C4.5 18.8284 5.17157 19.5 6 19.5H18C18.8284 19.5 19.5 18.8284 19.5 18V9.75H4.5Z" fill="#333333"/>
  </g>
  <defs>
    <clipPath id="clip0_2117_12162">
      <rect width="24" height="24" fill="white"/>
    </clipPath>
  </defs>
</svg>

<svg xmlns="http://www.w3.org/2000/svg" width="24" height="24" fill="none">
  <g fill="#333" clip-path="url(#a)">
    <path d="M7.5 12.25a.75.75 0 0 0 0 1.5h1a.75.75 0 0 0 0-1.5h-1ZM6.75 16a.75.75 0 0 1 .75-.75h1a.75.75 0 0 1 0 1.5h-1a.75.75 0 0 1-.75-.75ZM11.5 12.25a.75.75 0 0 0 0 1.5h1a.75.75 0 0 0 0-1.5h-1ZM10.75 16a.75.75 0 0 1 .75-.75h1a.75.75 0 0 1 0 1.5h-1a.75.75 0 0 1-.75-.75ZM15.5 12.25a.75.75 0 0 0 0 1.5h1a.75.75 0 0 0 0-1.5h-1Z"/>
    <path d="M8.5 2a.75.75 0 0 1 .75.75V4h5.5V2.75a.75.75 0 0 1 1.5 0V4H18a3 3 0 0 1 3 3v11a3 3 0 0 1-3 3H6a3 3 0 0 1-3-3V7a3 3 0 0 1 3-3h1.75V2.75A.75.75 0 0 1 8.5 2Zm6.25 3.5h-5.5v1.25a.75.75 0 0 1-1.5 0V5.5H6A1.5 1.5 0 0 0 4.5 7v1.25h15V7A1.5 1.5 0 0 0 18 5.5h-1.75v1.25a.75.75 0 0 1-1.5 0V5.5ZM4.5 9.75V18A1.5 1.5 0 0 0 6 19.5h12a1.5 1.5 0 0 0 1.5-1.5V9.75h-15Z"/>
  </g>
  <defs>
    <clipPath id="a">
      <path fill="#fff" d="M0 0h24v24H0z"/>
    </clipPath>
  </defs>
</svg>
